icon-themes/breeze_svg/sc/res/sidebar/CellBorder_TopAndBottom_18x18.svg

<svg viewBox="0 0 18 18" xmlns="http://www.w3.org/2000/svg"><path d="m2 1v15h15v-15z" fill="#b3b3b3"/><path d="m2 1v1h15v-1zm0 14v1h15v-1z" fill="#4d4d4d"/></svg>

<svg xmlns="http://www.w3.org/2000/svg" viewBox="0 0 18 18">
    <path
       style="fill:#b3b3b3"
       d="M 2 1 L 2 16 L 17 16 L 17 1 L 2 1 z "
	   />
    <path
       style="fill:#4d4d4d"
       d="M 2 1 L 2 2 L 17 2 L 17 1 L 2 1 z M 2 15 L 2 16 L 17 16 L 17 15 L 2 15 z "
       />
</svg>
